X:287
T:Mon pre avait six cent moutons
R:Valse
A:Massif Central
O:France
M:3/4
L:1/4
Q:1/4=210
K:F
CDE|FAG|C2C|D3|GFE|D3|C3:|
A2A|AFA|AFA|AGF|G3|G3|G3|
CFG|AcB|A3|A2G|F3|F3|F3|F zz||
W:
W:Mon pre avait six cent moutons
W:J'en tais la bergre
W:Mon pre avait six cent moutons
W:J'en tais la bergre
W:J'en tais la bergre dondaine, don don
W:J'en tais la bergre don
